X:93
T:Black Nag
M:6/8
R:Jig
L:1/8
C:John Playford, 1651
S:Colin Hume's website,  colinhume.com  - chords can also be printed below the stave.
Q:3/8=116
%%stretchstaff 0
%%MIDI bassprog 45      % Pizzicato Strings
%%MIDI chordprog 45     % Pizzicato Strings
%%MIDI program 40       % Violin
K:Dm
P:A
V:1
|: A | "Dm"d>ed "C"e>de | "Bb"f>ef "Gm"e>fg | "Dm"a>gf "A"e>de | "Dm"d3-d z :|
V:2 bass octave=-2
%%MIDI program 42       % Cello
|: z | d2d c2c | B2A G>AB | A2A A2A | d2Adz :|
P:B
V:1
|: d | "Am"ecA ecA | ecA ecA | "Dm"afd afd | afd afd |\
"Am"ecA ecA | ecA e>fg | "F"a>gf "A7"e>de | "Dm"d3-d2 :|
V:2
|: z | Ace aec | Ace aec | dfa d'af | dfa d'af |\
Ace aec | Ace a3 | f3 e3 | d>fe d2 :|

